svgs/sharp-solid/airplay.svg

<svg xmlns="http://www.w3.org/2000/svg" viewBox="0 0 576 512"><!--! Font Awesome Pro 6.4.2 by @fontawesome - https://fontawesome.com License - https://fontawesome.com/license (Commercial License) Copyright 2023 Fonticons, Inc. --><path d="M512 96H64V352H169l-62.5 56.2L97.9 416H64 0V352 96 32H64 512h64V96 352v64H512 478.1l-8.7-7.8L407 352H512V96zM288 288L448 432v48H128V432L288 288z"/></svg>

<svg xmlns="http://www.w3.org/2000/svg" viewBox="0 0 576 512"><!--! Font Awesome Pro 6.6.0 by @fontawesome - https://fontawesome.com License - https://fontawesome.com/license (Commercial License) Copyright 2024 Fonticons, Inc. --><path d="M512 96L64 96l0 256 105 0-62.5 56.2L97.9 416 64 416 0 416l0-64L0 96 0 32l64 0 448 0 64 0 0 64 0 256 0 64-64 0-33.9 0-8.7-7.8L407 352l105 0 0-256zM288 288L448 432l0 48-320 0 0-48L288 288z"/></svg>
